X:1030
T:The Mountaineer's March
N:"Collected by F.O'Neill"
B:O'Neill's 1030
Z:Transcribed by Dan G. Petersen, dangp@post6.tele.dk
M:6/8
L:1/8
K:G
3D/E/F/|GAG GAB|ABA ABd|edd gdB|ABA ABd|
GAG GAB|ABA ABd|edd gdB|cAF G2:|
3A/B/c/|d2d dBG|efe efg|ded dBG|ABc BAG|
ded dBG|e2f/e/d efg|dBd gdB|cAF G2:|
